X:266
T: RECHT VERGNUEGET KANN MAN LEBEN
N: E0862
O: Europa, Mitteleuropa, Deutschland, Hessen, Unter - Taunus; Limburg
R: Hochzeits -, Ehestands - Lied
M: 2/4
L: 1/16
K: F
 | F4G4 | A2c2c2BA | A4G4
F4G4 | A2c2c2BA | A4G4
F3Ac2f2 | d3cdcBA
G3AB2d2 | c3BcBAG
F4G4 | A2c2c2BA | A4G4

